packages/admin/admin-icons/icons/visible.svg

<svg xmlns="http://www.w3.org/2000/svg" width="16" height="16" viewBox="0 0 16 16"><path fill="#242424" fill-rule="evenodd" d="M7.96730661,3 C10.7491854,3 13.4049542,4.66646263 15.9346132,7.99938789 C13.4052841,11.3331293 10.7495153,13 7.96730661,13 C5.18542788,13 2.529659,11.3335374 -5.32907052e-15,8.00061211 C2.52932908,4.6668707 5.18509796,3 7.96730661,3 Z M7.96730661,4 C5.78374517,4 3.63149423,5.21379259 1.50466734,7.72121314 L1.27230661,8 L1.50464659,8.27965709 C3.5529333,10.6936377 5.62458334,11.9083358 7.72484184,11.995002 L7.96730661,12 C10.1508681,12 12.303119,10.7862074 14.4299459,8.27878686 L14.6613066,7.999 L14.4299666,7.72034291 C12.3816799,5.30636227 10.3100299,4.09166422 8.20977139,4.00499795 L7.96730661,4 Z M8,5 C9.65685425,5 11,6.34314575 11,8 C11,9.65685425 9.65685425,11 8,11 C6.34314575,11 5,9.65685425 5,8 C5,6.34314575 6.34314575,5 8,5 Z M8,6 C6.8954305,6 6,6.8954305 6,8 C6,9.1045695 6.8954305,10 8,10 C9.1045695,10 10,9.1045695 10,8 C10,6.8954305 9.1045695,6 8,6 Z"/></svg>

<svg width="16" height="16" fill="none" viewBox="0 0 16 16">
  <path fill="#242424" fill-rule="evenodd" d="M8.033 5.001a3 3 0 1 1 0 6 3 3 0 0 1 0-6Zm0 1a2 2 0 1 0 0 4 2 2 0 0 0 0-4Z M8 3.001c2.782 0 5.438 1.666 7.967 5-2.529 3.333-5.185 5-7.967 5s-5.438-1.666-7.967-5c2.529-3.333 5.185-5 7.967-5Zm0 1c-2.184 0-4.336 1.214-6.463 3.721l-.232.279.232.28c2.049 2.414 4.12 3.628 6.22 3.715l.243.005c2.184 0 4.336-1.214 6.463-3.721l.231-.28-.231-.279c-2.049-2.414-4.12-3.628-6.22-3.715L8 4.001Z" clip-rule="evenodd"/>
</svg>
